!!!COM:	Busnoys, Antoine
!!!CDT:	~1430///-1492/11/06
!!!OTL:	Ha que ville I
!!!AGN:	Song; Chanson
!!!SCT:	Bus3023
!!!SCA:	Bus3023
!!!voices:	3
**kern	**kern	**kern
*staff3	*staff2	*staff1
*Ivox	*Ivox	*Ivox
*I"Contratenor	*I"Tenor	*I"Superius
*I'Ct	*I'T	*I'S
*clefF4	*clefGv2	*clefG2
*k[b-]	*k[b-]	*k[b-]
*M2/1	*M2/1	*M2/1
*met(C|)	*met(C|)	*met(C|)
=1-	=1-	=1-
!	!	!LO:TX:Z=32:t=Rondeau
0r	1.G	1g
.	.	2b-
.	2F	[2a
=2	=2	=2
0r	2G	4a]
.	.	4g
.	2B-	1g
.	1A	.
.	.	2f
=3	=3	=3
1.GG	2G	2g
.	2.B-	4f
.	.	4e
.	.	2.d
.	8AL	.
.	8GJ	.
[2BB-	2F	.
.	.	4c
=4	=4	=4
2BB-]	2D	2d
2GG	1G	2B-
2.D	.	1A
.	2F#i	.
4C	.	.
=5	=5	=5
2BB-	2G	1G
4AA	1d	.
4GG	.	.
1FF#i	.	1r
.	2c	.
=6	=6	=6
2GG	2B-	1r
2BB-	4A	.
.	4G	.
1AA	2.F#i	1c
.	4E	.
=7	=7	=7
1GG	1G	4B-
.	.	4G
.	.	1B-
1C	1r	.
.	.	2A
=8	=8	=8
1BB-	1.d	2B-
.	.	2G
1r	.	2F
.	[2c	2A
=9	=9	=9
2r	2c]	2B-
2D	1B-	2d
2E	.	1c
2F	2A	.
=10	=10	=10
2G	2B-	1B-
2D	2.d	.
2F	.	1r
.	4c	.
2G	2B-	.
=11	=11	=11
1D	1A	1f
1GG	[1G	2.g
.	.	4f
=12	=12	=12
1r	2G]	2d
.	2F	1d
1AA	1E	.
.	.	2c#i
=13	=13	=13
2.BB-	2D	2d
.	1G	2.B-
4GG	.	.
4BB-	.	.
4C	.	4G
2AA	2F	2A
=14	=14	=14
4GG	2G	2.B-
2BB-	.	.
.	2B-	.
4C	.	4A
2D	2A	1F
2FF	2c	.
=15	=15	=15
2GG	2B-	0r
2BB-	1G	.
1AA	.	.
.	2F#i	.
=16	=16	=16
2GG	1G	1G
1C	.	.
.	1r	1A
4BB-	.	.
4AA	.	.
=17	=17	=17
1GG	1d	1B-
1r	1e	1c
=18	=18	=18
0r	2.f	1d
.	4d	.
.	2e	2c
.	[2d	[2f
=19	=19	=19
0r	2d]	2f]
.	2B-	2d
.	2c	2e-
.	2A	2c
=20	=20	=20
1.GG	2G	1B-N
.	2d	.
.	2e	1r
2FF	2f	.
=21	=21	=21
2BB-	2d	1r
2C	1g	.
2.D	.	1A
.	2f#i	.
4C	.	.
=22	=22	=22
2BB-	1g	2G
2GG	.	2B-
2AA	1r	2c
2BB-	.	[2d
=23	=23	=23
1GG	0r	2d]
.	.	2B-
1FF	.	2c
.	.	2A
=24	=24	=24
2GG	1.d	2B-
2BB-	.	4A
.	.	4G
1AA	.	2.F#i
.	2c	.
.	.	4E
=25	=25	=25
1GG	2e-i	1G
.	1d	.
1FF	.	1r
.	2c	.
=26	=26	=26
1r	2B-	1g
.	2.c	.
1FF	.	1a
.	4B-	.
.	2A	.
=27	=27	=27
1GG	2G	1b-
.	1d	.
1FF	.	1a
.	2c	.
=28	=28	=28
1GG	2B-	2d
.	2G	2e
1FF	1A	4f
.	.	4e
.	.	4d
.	.	4c
=29	=29	=29
2GG	1G	2B-
2BB-	.	1d
1AA	1F#i	.
.	.	2c
=30	=30	=30
2GG	2G	2d
2BB-	2.d	1G
1AA	.	.
.	4c	.
.	4B-	2F
.	4A	.
=31	=31	=31
1GG	2B-	1G
.	4A	.
.	4G	.
2r	2F	1A
2F	2c	.
=32	=32	=32
2.G	2B-	2G
.	2.d	2.b-
4F	.	.
2D	.	.
.	4A	4a
[2C	[2c	[2a
=33	=33	=33
4C]	4c]	4a]
4BB-	4G	4g
2GG	2B-	2.g
1D	1A	.
.	.	4f#i
.	.	4f#i
.	.	4e
=34	=34	=34
0GGl	0Gl	0gl
==	==	==
*-	*-	*-
!!!RDF**kern: l=long note in original notation
!!!RDF**kern: i=editorial accidental
!!!RDF**kern: N=signum congruentiae
!!!ENC:	Chris Gage 04-20-2015
!!!END:	2015/05/05/
!!!EED:	Jesse Rodin
!!!EEV:	2015/09/21/
!!!ONB:	Translated from MusicXML and edited on 2015/09/21/ by Craig Sapp
!!muse2ps: C^@{COM}^i2I150v95,95,150Q16
